svgs/duotone/circle-divide.svg

<svg xmlns="http://www.w3.org/2000/svg" viewBox="0 0 512 512"><!-- Font Awesome Pro 6.0.0-alpha2 by @fontawesome - https://fontawesome.com License - https://fontawesome.com/license (Commercial License) --><defs><style>.fa-secondary{opacity:.4}</style></defs><path d="M256.002 16C123.438 16 16 123.438 16 256S123.438 496 256.002 496C388.562 496 496 388.562 496 256S388.562 16 256.002 16ZM256 128C273.674 128 288 142.326 288 160C288 177.672 273.674 192 256 192S224 177.672 224 160C224 142.326 238.326 128 256 128ZM256 384C238.326 384 224 369.672 224 352C224 334.326 238.326 320 256 320S288 334.326 288 352C288 369.672 273.674 384 256 384ZM352.002 280H160.002C146.801 280 136 269.197 136 256C136 242.799 146.801 232 160.002 232H352.002C365.199 232 376 242.799 376 256C376 269.197 365.199 280 352.002 280Z" class="fa-secondary"/><path d="M352.002 232H160.002C146.801 232 136 242.799 136 256C136 269.197 146.801 280 160.002 280H352.002C365.199 280 376 269.197 376 256C376 242.799 365.199 232 352.002 232ZM256 192C273.674 192 288 177.672 288 160C288 142.326 273.674 128 256 128S224 142.326 224 160C224 177.672 238.326 192 256 192ZM256 320C238.326 320 224 334.326 224 352C224 369.672 238.326 384 256 384S288 369.672 288 352C288 334.326 273.674 320 256 320Z" class="fa-primary"/></svg>

<svg xmlns="http://www.w3.org/2000/svg" viewBox="0 0 512 512"><!--! Font Awesome Pro 6.0.0-alpha3 by @fontawesome - https://fontawesome.com License - https://fontawesome.com/license (Commercial License) --><defs><style>.fa-secondary{opacity:.4}</style></defs><path class="fa-primary" d="M352 232h-192C146.8 232 136 242.8 136 256c0 13.2 10.8 24 24 24h192C365.2 280 376 269.2 376 256C376 242.8 365.2 232 352 232zM256 192c17.67 0 32-14.33 32-32c0-17.67-14.33-32-32-32S224 142.3 224 160C224 177.7 238.3 192 256 192zM256 320c-17.67 0-32 14.33-32 32c0 17.67 14.33 32 32 32s32-14.33 32-32C288 334.3 273.7 320 256 320z"/><path class="fa-secondary" d="M256 0C114.6 0 0 114.6 0 256s114.6 256 256 256C397.4 512 512 397.4 512 256S397.4 0 256 0zM256 128c17.67 0 32 14.33 32 32c0 17.67-14.33 32-32 32S224 177.7 224 160C224 142.3 238.3 128 256 128zM256 384c-17.67 0-32-14.33-32-32c0-17.67 14.33-32 32-32s32 14.33 32 32C288 369.7 273.7 384 256 384zM352 280h-192C146.8 280 136 269.2 136 256c0-13.2 10.8-24 24-24h192C365.2 232 376 242.8 376 256C376 269.2 365.2 280 352 280z"/></svg>
